img/sidebar/product.svg

<?xml version="1.0" encoding="UTF-8"?>
<svg width="40px" height="40px" viewBox="0 0 40 40" version="1.1" xmlns="http://www.w3.org/2000/svg" xmlns:xlink="http://www.w3.org/1999/xlink">
    <title>4B3FF073-7498-4248-BB73-D695401800ED@2.00x</title>
    <g id="homepage" stroke="none" stroke-width="1" fill="none" fill-rule="evenodd">
        <g id="Nav-Side" transform="translate(-47.000000, -540.000000)" fill-rule="nonzero">
            <g id="Group-43" transform="translate(47.000000, 540.000000)">
                <g id="engineering">
                    <rect id="Rectangle" x="11.6129032" y="13.5483871" width="5.16129032" height="2.58064516"></rect>
                    <rect id="Rectangle" x="24.516129" y="10.9677419" width="5.16129032" height="5.16129032"></rect>
                    <path d="M20,18.7096774 C15.7245161,18.7096774 12.2580645,22.176129 12.2580645,26.4516129 L12.2580645,31.6129032 L27.7419355,31.6129032 L27.7419355,26.4516129 C27.7419355,22.176129 24.2754839,18.7096774 20,18.7096774 Z" id="Path"></path>
                    <polygon id="Path" stroke="#000000" points="19.3548387 11.6129032 10.3225806 11.6129032 10.3225806 2.58064516 19.3548387 2.58064516"></polygon>
                    <g id="Group" fill="#000000">
                        <path d="M38.7096774,33.5483871 L38.7096774,10.9677419 C38.7096774,9.18903226 37.2625806,7.74193548 35.483871,7.74193548 L32.2580645,7.74193548 L32.2580645,9.03225806 L35.483871,9.03225806 C36.5509677,9.03225806 37.4193548,9.90064516 37.4193548,10.9677419 L37.4193548,33.5483871 L36.1290323,33.5483871 L36.1290323,11.6129032 C36.1290323,10.9012903 35.5503226,10.3225806 34.8387097,10.3225806 L32.2580645,10.3225806 L32.2580645,6.82967742 L25.4283871,0 L7.74193548,0 L7.74193548,7.74193548 L4.51612903,7.74193548 C2.73741935,7.74193548 1.29032258,9.18903226 1.29032258,10.9677419 L1.29032258,33.5483871 L0,33.5483871 L0,36.7741935 C0,38.5529032 1.44709677,40 3.22580645,40 L36.7741935,40 C38.5529032,40 40,38.5529032 40,36.7741935 L40,33.5483871 L38.7096774,33.5483871 Z M34.8387097,11.6129032 L34.8387097,33.5483871 L25.8064516,33.5483871 L25.1612903,33.5483871 L14.8387097,33.5483871 L14.1935484,33.5483871 L5.16129032,33.5483871 L5.16129032,11.6129032 L7.74193548,11.6129032 L7.74193548,32.2580645 L32.2580645,32.2580645 L32.2580645,11.6129032 L34.8387097,11.6129032 Z M24.516129,34.8387097 L24.516129,35.483871 C24.516129,35.84 24.2264516,36.1290323 23.8709677,36.1290323 L16.1290323,36.1290323 C15.7735484,36.1290323 15.483871,35.84 15.483871,35.483871 L15.483871,34.8387097 L24.516129,34.8387097 Z M19.3548387,14.8387097 C19.3548387,14.4825806 19.6445161,14.1935484 20,14.1935484 C20.3554839,14.1935484 20.6451613,14.4825806 20.6451613,14.8387097 C20.6451613,15.1948387 20.3554839,15.483871 20,15.483871 C19.6445161,15.483871 19.3548387,15.1948387 19.3548387,14.8387097 Z M20,19.3548387 C23.2412903,19.3548387 25.976129,21.5419355 26.8219355,24.516129 L13.1780645,24.516129 C14.023871,21.5419355 16.7587097,19.3548387 20,19.3548387 Z M24.516129,30.9677419 L24.516129,29.6774194 L27.0967742,29.6774194 L27.0967742,30.9677419 L24.516129,30.9677419 Z M16.7741935,30.9677419 L16.7741935,29.6774194 L23.2258065,29.6774194 L23.2258065,30.9677419 L16.7741935,30.9677419 Z M12.9032258,26.4516129 C12.9032258,26.2335484 12.9167742,26.0193548 12.936129,25.8064516 L27.0645161,25.8064516 C27.0832258,26.0193548 27.0967742,26.2335484 27.0967742,26.4516129 L27.0967742,28.3870968 L24.516129,28.3870968 L24.516129,27.0967742 L23.2258065,27.0967742 L23.2258065,28.3870968 L16.7741935,28.3870968 L16.7741935,27.0967742 L15.483871,27.0967742 L15.483871,28.3870968 L12.9032258,28.3870968 L12.9032258,26.4516129 Z M12.9032258,29.6774194 L15.483871,29.6774194 L15.483871,30.9677419 L12.9032258,30.9677419 L12.9032258,29.6774194 Z M25.8064516,2.20258065 L30.0554839,6.4516129 L25.8064516,6.4516129 L25.8064516,2.20258065 Z M9.03225806,1.29032258 L24.516129,1.29032258 L24.516129,7.74193548 L30.9677419,7.74193548 L30.9677419,30.9677419 L28.3870968,30.9677419 L28.3870968,26.4516129 C28.3870968,22.0451613 24.9683871,18.4290323 20.6451613,18.0974194 L20.6451613,16.6554839 C21.3941935,16.3883871 21.9354839,15.6787097 21.9354839,14.8387097 C21.9354839,13.7716129 21.0670968,12.9032258 20,12.9032258 C18.9329032,12.9032258 18.0645161,13.7716129 18.0645161,14.8387097 C18.0645161,15.6787097 18.6058065,16.3883871 19.3548387,16.6554839 L19.3548387,18.0974194 C15.0316129,18.4290323 11.6129032,22.0451613 11.6129032,26.4516129 L11.6129032,30.9677419 L9.03225806,30.9677419 L9.03225806,1.29032258 Z M2.58064516,10.9677419 C2.58064516,9.90064516 3.44903226,9.03225806 4.51612903,9.03225806 L7.74193548,9.03225806 L7.74193548,10.3225806 L5.16129032,10.3225806 C4.44967742,10.3225806 3.87096774,10.9012903 3.87096774,11.6129032 L3.87096774,33.5483871 L2.58064516,33.5483871 L2.58064516,10.9677419 Z M38.7096774,36.7741935 C38.7096774,37.8412903 37.8412903,38.7096774 36.7741935,38.7096774 L3.22580645,38.7096774 C2.15870968,38.7096774 1.29032258,37.8412903 1.29032258,36.7741935 L1.29032258,34.8387097 L14.1935484,34.8387097 L14.1935484,35.483871 C14.1935484,36.5509677 15.0619355,37.4193548 16.1290323,37.4193548 L23.8709677,37.4193548 C24.9380645,37.4193548 25.8064516,36.5509677 25.8064516,35.483871 L25.8064516,34.8387097 L38.7096774,34.8387097 L38.7096774,36.7741935 Z" id="Shape"></path>
                        <rect id="Rectangle" x="11.6129032" y="5.16129032" width="6.4516129" height="1.29032258"></rect>
                        <rect id="Rectangle" x="11.6129032" y="7.74193548" width="6.4516129" height="1.29032258"></rect>
                        <rect id="Rectangle" x="11.6129032" y="12.9032258" width="5.16129032" height="1.29032258"></rect>
                        <rect id="Rectangle" x="11.6129032" y="15.483871" width="5.16129032" height="1.29032258"></rect>
                        <rect id="Rectangle" x="24.516129" y="10.3225806" width="5.16129032" height="1.29032258"></rect>
                        <rect id="Rectangle" x="24.516129" y="15.483871" width="5.16129032" height="1.29032258"></rect>
                        <rect id="Rectangle" x="24.516129" y="12.9032258" width="5.16129032" height="1.29032258"></rect>
                        <rect id="Rectangle" x="16.7741935" y="21.9354839" width="1.29032258" height="1.29032258"></rect>
                        <rect id="Rectangle" x="21.9354839" y="21.9354839" width="1.29032258" height="1.29032258"></rect>
                    </g>
                </g>
            </g>
        </g>
    </g>
</svg>

<svg width="40" height="40" xmlns="http://www.w3.org/2000/svg"><g fill-rule="nonzero" fill="none"><path d="M11.613 13.548h5.161v2.581h-5.161zM24.516 10.968h5.161v5.161h-5.161zM20 18.71a7.742 7.742 0 00-7.742 7.742v5.16h15.484v-5.16A7.742 7.742 0 0020 18.71z"/><path stroke="#000" d="M19.355 11.613h-9.032V2.58h9.032z"/><g fill="#000"><path d="M38.71 33.548v-22.58a3.23 3.23 0 00-3.226-3.226h-3.226v1.29h3.226c1.067 0 1.935.869 1.935 1.936v22.58h-1.29V11.613c0-.712-.579-1.29-1.29-1.29h-2.58V6.83L25.428 0H7.741v7.742H4.516a3.23 3.23 0 00-3.226 3.226v22.58H0v3.226A3.23 3.23 0 003.226 40h33.548A3.23 3.23 0 0040 36.774v-3.226h-1.29zm-3.871-21.935v21.935H5.16V11.613h2.58v20.645h24.517V11.613h2.58zM24.516 34.839v.645c0 .356-.29.645-.645.645h-7.742a.646.646 0 01-.645-.645v-.645h9.032zm-5.161-20a.646.646 0 111.291.001.646.646 0 01-1.291-.001zM20 19.355c3.241 0 5.976 2.187 6.822 5.161H13.178c.846-2.974 3.58-5.161 6.822-5.161zm4.516 11.613v-1.29h2.58v1.29h-2.58zm-7.742 0v-1.29h6.452v1.29h-6.452zm-3.87-4.516c0-.218.013-.433.032-.646h14.129c.018.213.032.428.032.646v1.935h-2.58v-1.29h-1.291v1.29h-6.452v-1.29h-1.29v1.29h-2.58v-1.935zm0 3.225h2.58v1.29h-2.58v-1.29zM25.805 2.203l4.25 4.249h-4.25v-4.25zM9.032 1.29h15.484v6.452h6.452v23.226h-2.58v-4.516c0-4.407-3.42-8.023-7.743-8.355v-1.442a1.933 1.933 0 001.29-1.816A1.938 1.938 0 0020 12.903a1.938 1.938 0 00-1.935 1.936c0 .84.54 1.55 1.29 1.816v1.442c-4.323.332-7.742 3.948-7.742 8.355v4.516h-2.58V1.29zm-6.451 9.678c0-1.067.868-1.936 1.935-1.936h3.226v1.29h-2.58c-.712 0-1.291.58-1.291 1.29v21.936h-1.29v-22.58zM38.71 36.774a1.938 1.938 0 01-1.936 1.936H3.226a1.938 1.938 0 01-1.936-1.936V34.84h12.904v.645c0 1.067.868 1.935 1.935 1.935h7.742a1.938 1.938 0 001.935-1.935v-.645H38.71v1.935z"/><path d="M11.613 5.161h6.452v1.29h-6.452zM11.613 7.742h6.452v1.29h-6.452zM11.613 12.903h5.161v1.29h-5.161zM11.613 15.484h5.161v1.29h-5.161zM24.516 10.323h5.161v1.29h-5.161zM24.516 15.484h5.161v1.29h-5.161zM24.516 12.903h5.161v1.29h-5.161zM16.774 21.935h1.29v1.29h-1.29zM21.935 21.935h1.29v1.29h-1.29z"/></g></g></svg>
